svgs/solid/calendar-lines-pen.svg

<svg xmlns="http://www.w3.org/2000/svg" viewBox="0 0 576 512"><!--! Font Awesome Pro 6.2.0 by @fontawesome - https://fontawesome.com License - https://fontawesome.com/license (Commercial License) Copyright 2022 Fonticons, Inc. --><path d="M128 0c17.7 0 32 14.3 32 32V64H288V32c0-17.7 14.3-32 32-32s32 14.3 32 32V64h48c26.5 0 48 21.5 48 48v48H0V112C0 85.5 21.5 64 48 64H96V32c0-17.7 14.3-32 32-32zM0 192H448v43.6L289.3 394.3c-8.2 8.2-14 18.5-16.8 29.7l-15 60.1c-2.3 9.4-1.8 19 1.4 27.8H48c-26.5 0-48-21.5-48-48V192zm120 80c-13.3 0-24 10.7-24 24s10.7 24 24 24H264c13.3 0 24-10.7 24-24s-10.7-24-24-24H120zM96 392c0 13.3 10.7 24 24 24h80c13.3 0 24-10.7 24-24s-10.7-24-24-24H120c-13.3 0-24 10.7-24 24zM549.8 235.7l14.4 14.4c15.6 15.6 15.6 40.9 0 56.6l-29.4 29.4-71-71 29.4-29.4c15.6-15.6 40.9-15.6 56.6 0zM311.9 417L441.1 287.8l71 71L382.9 487.9c-4.1 4.1-9.2 7-14.9 8.4l-60.1 15c-5.5 1.4-11.2-.2-15.2-4.2s-5.6-9.7-4.2-15.2l15-60.1c1.4-5.6 4.3-10.8 8.4-14.9z"/></svg>

<svg xmlns="http://www.w3.org/2000/svg" viewBox="0 0 576 512"><!--! Font Awesome Pro 6.1.2 by @fontawesome - https://fontawesome.com License - https://fontawesome.com/license (Commercial License) Copyright 2022 Fonticons, Inc. --><path d="M160 32V64H288V32C288 14.33 302.3 0 320 0C337.7 0 352 14.33 352 32V64H400C426.5 64 448 85.49 448 112V160H0V112C0 85.49 21.49 64 48 64H96V32C96 14.33 110.3 0 128 0C145.7 0 160 14.33 160 32zM0 192H448V235.6L289.3 394.3C281.1 402.5 275.3 412.8 272.5 424.1L257.4 484.2C255.1 493.6 255.7 503.2 258.8 512H48C21.49 512 0 490.5 0 464V192zM120 272C106.7 272 96 282.7 96 296C96 309.3 106.7 320 120 320H264C277.3 320 288 309.3 288 296C288 282.7 277.3 272 264 272H120zM120 416H200C213.3 416 224 405.3 224 392C224 378.7 213.3 368 200 368H120C106.7 368 96 378.7 96 392C96 405.3 106.7 416 120 416zM564.1 250.1C579.8 265.7 579.8 291 564.1 306.7L534.7 336.1L463.8 265.1L493.2 235.7C508.8 220.1 534.1 220.1 549.8 235.7L564.1 250.1zM311.9 416.1L441.1 287.8L512.1 358.7L382.9 487.9C378.8 492 373.6 494.9 368 496.3L307.9 511.4C302.4 512.7 296.7 511.1 292.7 507.2C288.7 503.2 287.1 497.4 288.5 491.1L303.5 431.8C304.9 426.2 307.8 421.1 311.9 416.1V416.1z"/></svg>
